X:85
T: Changgong ku
N: C1578
O: China, Jiangsu, Nanjing
S: III, 470]
R: Xiaodiao]
M: 2/4
L: 1/16
K: G
G2G2A2AB | d3ed4 | BB2GABdd | A3GE4
ddBdE2G2 | A3BAGE2 | D8
E2EDE2EG | A3Bd4 | ee2dBBBd | A3BG4
ddBdE2G2 | A3BAGE2 | D8

